X: 20454
Q: "Moderate."
M: 6/8
L: 1/8
K: D
ffe d2c | cBB e2e | eac edB | cAz z2A |
g2e cBA | def A2A | AAA A2G | GFz z2E |\
EEE e2d | cde e2e | eee ede | efz zAA |\


